dist/img/svg/icon-company.svg

<svg width="20" height="20" viewBox="0 0 20 20" fill="none" xmlns="http://www.w3.org/2000/svg">
<path d="M3.0268 8.2C2.87574 8.78806 2.79954 9.39285 2.8 10C2.8 10.621 2.8792 11.224 3.0268 11.8H5.59C5.46866 10.6031 5.46866 9.39693 5.59 8.2H3.0268ZM3.763 6.4H5.8744C6.1138 5.3047 6.4594 4.3237 6.8833 3.5074C5.57666 4.13688 4.48949 5.14471 3.763 6.4ZM16.9732 8.2H14.41C14.5313 9.39693 14.5313 10.6031 14.41 11.8H16.9732C17.2762 10.6191 17.2762 9.38087 16.9732 8.2ZM16.237 6.4C15.5105 5.14471 14.4233 4.13688 13.1167 3.5074C13.5415 4.3237 13.8862 5.3047 14.1256 6.4H16.237ZM7.4008 8.2C7.33337 8.79763 7.29972 9.39858 7.3 10C7.3 10.6165 7.3342 11.2195 7.4008 11.8H12.5992C12.7347 10.6038 12.7347 9.39617 12.5992 8.2H7.4008ZM7.723 6.4H12.277C12.1132 5.72347 11.8769 5.06657 11.5723 4.4407C11.0071 3.3112 10.4023 2.8 10 2.8C9.5968 2.8 8.9929 3.3112 8.4277 4.4407C8.1442 5.0095 7.9057 5.671 7.723 6.4ZM3.763 13.6C4.48949 14.8553 5.57666 15.8631 6.8833 16.4926C6.4585 15.6763 6.1138 14.6953 5.8744 13.6H3.763ZM16.237 13.6H14.1256C13.8862 14.6953 13.5406 15.6763 13.1167 16.4926C14.4233 15.8631 15.5105 14.8553 16.237 13.6ZM7.723 13.6C7.9057 14.329 8.1442 14.9905 8.4277 15.5593C8.9929 16.6888 9.5977 17.2 10 17.2C10.4032 17.2 11.0071 16.6888 11.5723 15.5593C11.8558 14.9905 12.0943 14.329 12.277 13.6H7.723ZM10 19C5.0293 19 1 14.9707 1 10C1 5.0293 5.0293 1 10 1C14.9707 1 19 5.0293 19 10C19 14.9707 14.9707 19 10 19Z" fill="#FFA300"/>
</svg>

<svg width="20" height="20" fill="none" xmlns="http://www.w3.org/2000/svg"><path d="M3.027 8.2a7.243 7.243 0 000 3.6H5.59a17.847 17.847 0 010-3.6H3.027zm.736-1.8h2.111c.24-1.095.585-2.076 1.01-2.893A7.231 7.231 0 003.762 6.4zm13.21 1.8H14.41a17.853 17.853 0 010 3.6h2.563a7.242 7.242 0 000-3.6zm-.736-1.8a7.232 7.232 0 00-3.12-2.893c.424.817.77 1.798 1.009 2.893h2.111zM7.401 8.2a15.988 15.988 0 000 3.6h5.198a15.992 15.992 0 000-3.6H7.401zm.322-1.8h4.554a9.686 9.686 0 00-.705-1.96C11.007 3.312 10.402 2.8 10 2.8c-.403 0-1.007.511-1.572 1.64a9.705 9.705 0 00-.705 1.96zm-3.96 7.2a7.232 7.232 0 003.12 2.893c-.425-.817-.77-1.798-1.009-2.893H3.763zm12.474 0h-2.111c-.24 1.095-.585 2.076-1.01 2.893a7.232 7.232 0 003.121-2.893zm-8.514 0c.183.729.421 1.39.705 1.96.565 1.129 1.17 1.64 1.572 1.64.403 0 1.007-.511 1.572-1.64.284-.57.522-1.231.705-1.96H7.723zM10 19a9 9 0 01-9-9 9 9 0 019-9 9 9 0 019 9 9 9 0 01-9 9z" fill="#FFA300"/></svg>
